X: 11
T: MISS FORBES' FAREWELL TO BANFF
S: "COUNTRY DANCES OF TODAY 2", CDSS, May Gadd ed., 1951 p.12
R: reel
Z: 2010 John Chambers <jc:trillian.mit.edu>
M: 4/4
L: 1/8
K: G
"A"|: GA |\
"G"B2Bd cBAG | B2d2 "C"efge | "G"d2de dBAG | "A"B2A2 "D7"A2GA | B2Bd "C"cBAG |
"G"B2d2 "C"efge | "G"d2de "D7"dBGA | "G"B2G2 G2 "B":: d2 | "G"gfga gfed | "C"edef g2ge |
"G"d2de dBAG | "A"B2A2 "D7"A2d2 | "G"gfga gfed | "C"edef g2ge | "G"d2de "D7"dBAG | "G"B2G2 G2 :|


%%sep 5 1 500

%%sep 1 1 500

